X:1
T:Frieden
T:Karl Johann Christian Kloss (1792-1853)
T:Carl Sauppe
T:Frieden
T:CPDL   —   Creative Commons Attribution Non Commercial 3.0
T:CPDL   —   Creative Commons Attribution Non Commercial 3.0
C:Karl Johann Christian Kloss
Z:Carl Sauppe
Z:CPDL   —   Creative Commons Attribution Non Commercial 3.0
%%score [ ( 1 2 ) 3 4 ]
L:1/8
Q:1/4=72
M:4/4
K:F
V:1 treble nm="Sopran\nAlt"
V:2 treble 
V:3 treble-8 nm="Tenor"
V:4 bass nm="Bass"
V:1
"^Sehr langsam"!pp! A2 | A4 A2 A2 | B4 A2 A2 |!<(! G4 G4!<)! |!>(! (A4 !breath!G2)!>)!!pp! A2 | %5
w: 1.  Da|un- ten ist|Frie- den im|dun- keln|Haus, _ da|
w: 2.  Den|hier einst ge-|mie- den er-|sehn- te|Ruh, _ hier|
w: 3.  Da|borgt nicht die|Hül- le des|Traums der|Schmerz, _ auf|
 A4!<(! A2 A2!<)! | (c2!>(! B2)!>)! A2!pp! F2 | D4 E4 | !fermata!F4 z2!mf! F2 |!<(! c4 ^c2!<)! c2 | %10
w: schlum- mert der|Mü- * de, da|ruht er|aus. Und|schlief er im|
w: schließt er zum|Frie- * den sein|Au- ge|zu. Der|schmerz- li- che|
w: e- wig nun|stil- * le steht|hier das|Herz. Mag´s|to- ben da|
 d4 f2 d2 | A4 ^c4 |!>(! !breath!d6!>)!!mf! =c2 | c4 B2 A2 |!>(! G4 _A2!>)!!p! F2 |!>(! A6 G2!>)! | %16
w: Schim- mer des|A- bends|ein, es|we- cket ihn|nim- mer der|Frü- he|
w: Stun- den in|Not durch-|wacht, still|schläft er da|un- ten in|tie- fer|
w: o- ben und|stür- men|sehr, was|küm- mert das|To- ben den|Schlä- fer|
 !fermata!F4 !fermata!z2 |] %17
w: Schein.|
w: Nacht.|
w: mehr?|
V:2
 F2 | F4 F2 F2 | G4 F2 F2 | F4 F4 | (F4 E2) F2 | F4 F2 F2 | G4 F2 C2 | D4 C4 | C4 x2 F2 | %9
 (F2 A2) G2 G2 | F4 A2 A2 | E4 G4 | F6 F2 | G4 G2 F2 | F4 F2 F2 | F4 E4 | F4 x2 |] %17
V:3
!pp! c2 | c4 c2 c2 | c4 c2 c2 |!<(! d4 d4!<)! |!>(! !breath!c6!>)!!pp! c2 | c4!<(! c2 c2!<)! | %6
w: 1. Da|un- ten ist|Frie- den im|dun- keln|Haus, da|schlum- mert der|
w: 2. Den|hier einst ge-|mie- den er-|sehn- te|Ruh, hier|schließt er zum|
w: 3. Da|borgt nicht die|Hül- le des|Traums der|Schmerz, auf|e- wig nun|
 c4!>(! c2!>)!!pp! A2 | B4 B4 | !fermata!A4 z2!mf! A2 |!<(! A4 A2!<)! A2 | A4 d2 d2 | ^c4 e4 | %12
w: Mü- de, da|ruht er|aus. Und|schlief er im|Schim- mer des|A- bends|
w: Frie- den sein|Au- ge|zu. Der|schmerz- li- che|Stun- den in|Not durch-|
w: stil- le steht|hier das|Herz. Mag´s|to- ben da|o- ben und|stür- men|
!>(! !breath!d6!>)!!mf! f2 | c4 c2 c2 |!>(! d4 d2!>)!!p! d2 |!>(! c4 B4!>)! | %16
w: ein, es|we- cket ihn|nim- mer der|Frü- he|
w: wacht. still|schläft er da|un- ten in|tie- fer|
w: sehr, was|küm- mert das|To- ben den|Schlä- fer|
 !fermata!A4 !fermata!z2 |] %17
w: Schein.|
w: Nacht.|
w: mehr?|
V:4
!pp! F,2 | F,4 F,2 F,2 | E,4 F,2 F,2 |!<(! B,,4 =B,,4!<)! |!>(! !breath!C,6!>)!!pp! F,2 | %5
 F,4!<(! F,2 F,2!<)! | E,4!>(! F,2!>)!!pp! A,2 | B,4 G,4 | !fermata!F,4 z2!mf! F,2 | %9
!<(! F,4 E,2!<)! E,2 | D,4 D,2 F,2 | A,4 A,4 |!>(! !breath!B,6!>)!!mf! A,2 | E,4 E,2 F,2 | %14
!>(! B,4 =B,2!>)!!p! B,2 |!>(! C4 C,4!>)! | !fermata!F,4 !fermata!z2 |] %17

